storage/app/icons/phosphoricons/duotone/link-simple-horizontal-break-duotone.svg

<svg xmlns="http://www.w3.org/2000/svg" fill="currentColor" viewBox="0 0 256 256"><path d="M240 128a48 48 0 0 1-48 48H64a48 48 0 0 1-48-48 48 48 0 0 1 48-48h128a48 48 0 0 1 48 48" opacity=".2"/><path d="M24 128a40 40 0 0 0 40 40h40a8 8 0 0 1 0 16H64a56 56 0 0 1 0-112h40a8 8 0 0 1 0 16H64a40 40 0 0 0-40 40m168-56h-40a8 8 0 0 0 0 16h40a40 40 0 0 1 0 80h-40a8 8 0 0 0 0 16h40a56 56 0 0 0 0-112"/></svg>

<svg xmlns="http://www.w3.org/2000/svg" viewBox="0 0 256 256" fill="currentColor"><path d="M240,128h0a48,48,0,0,1-48,48H64a48,48,0,0,1-48-48h0A48,48,0,0,1,64,80H192A48,48,0,0,1,240,128Z" opacity="0.2"/><path d="M24,128a40,40,0,0,0,40,40h40a8,8,0,0,1,0,16H64A56,56,0,0,1,64,72h40a8,8,0,0,1,0,16H64A40,40,0,0,0,24,128ZM192,72H152a8,8,0,0,0,0,16h40a40,40,0,0,1,0,80H152a8,8,0,0,0,0,16h40a56,56,0,0,0,0-112Z"/></svg>
